X: 37226
T: Siubhan Ni Dhuibir
R: waltz
M: 3/4
K: Amixolydian
|:A2e2e2|e2f2g2|e2d2B2|A4A2|A6|
A4 e2|a4a2|g6|f2e2d2|f4 g2|e6|
e4 e2|a4a2|g4g2|f2e2d2|f4 g2|e6|
e4A2|A2e2e2|e2f2g2|e2d2B2|A6|A6|A6:|

